src/assets/timo_logo.svg

<?xml version="1.0" encoding="UTF-8" standalone="no"?>
<!DOCTYPE svg PUBLIC "-//W3C//DTD SVG 1.1//EN" "http://www.w3.org/Graphics/SVG/1.1/DTD/svg11.dtd">
<!-- Created with Vectornator (http://vectornator.io/) -->
<svg height="100%" stroke-miterlimit="10" style="fill-rule:nonzero;clip-rule:evenodd;stroke-linecap:round;stroke-linejoin:round;" version="1.1" viewBox="0 0 1080 1080" width="100%" xml:space="preserve" xmlns="http://www.w3.org/2000/svg" xmlns:vectornator="http://vectornator.io" xmlns:xlink="http://www.w3.org/1999/xlink">
<defs/>
<g id="Layer-1" vectornator:layerName="Layer 1">
<path d="M174.281 73.8438C123.986 73.8438 83.2188 114.611 83.2188 164.906C83.2188 215.201 123.986 255.969 174.281 255.969L434 255.969C433.96 257.163 433.813 258.328 433.812 259.531L433.812 873.75C433.813 932.689 481.592 980.469 540.531 980.469C599.47 980.469 647.25 932.689 647.25 873.75L647.25 546.438C669.315 553.079 692.708 556.688 716.938 556.688C850.276 556.687 958.375 448.589 958.375 315.25C958.375 187.478 859.082 82.9788 733.469 74.4688C730.09 74.0887 726.667 73.8438 723.188 73.8438L174.281 73.8438ZM719.938 191C788.697 191 844.437 246.741 844.438 315.5C844.438 384.259 788.697 440 719.938 440C651.178 440 595.438 384.259 595.438 315.5C595.438 246.741 651.178 191 719.938 191Z" fill="#ffffff" fill-rule="nonzero" opacity="1" stroke="none"/>
</g>
</svg>

<svg xmlns="http://www.w3.org/2000/svg" xmlnsVectornator="http://vectornator.io" xmlSpace="preserve" stroke-miterlimit="10" style="fill-rule:nonzero;clip-rule:evenodd;stroke-linecap:round;stroke-linejoin:round" viewBox="0 0 1080 1080"><path vectornatorLayerName="Layer 1" fill="#fff" d="M174.281 73.844c-50.295 0-91.062 40.767-91.062 91.062 0 50.295 40.767 91.063 91.062 91.063H434c-.04 1.194-.187 2.359-.188 3.562V873.75c.001 58.939 47.78 106.719 106.719 106.719 58.939 0 106.719-47.78 106.719-106.719V546.438a241.449 241.449 0 0 0 69.688 10.25c133.338-.001 241.437-108.099 241.437-241.438 0-127.772-99.293-232.271-224.906-240.781-3.379-.38-6.802-.625-10.281-.625H174.281ZM719.938 191c68.759 0 124.499 55.741 124.5 124.5 0 68.759-55.741 124.5-124.5 124.5-68.76 0-124.5-55.741-124.5-124.5s55.74-124.5 124.5-124.5Z"/></svg>
